icons/production/gulp.svg

<?xml version="1.0" encoding="UTF-8" standalone="no"?>
<svg width="24px" height="24px" viewBox="0 0 24 24" version="1.1" xmlns="http://www.w3.org/2000/svg">
<!--Generator: Sketch 3.8.3 (29802) - http://www.bohemiancoding.com/sketch-->
    <title>
        gulp
    </title>
    <desc>
        Created with Sketch.
    </desc>
    <g id="Page-1" stroke="none" stroke-width="1" fill="none" fill-rule="evenodd">
        <path d="M15.9283878,2.01499146 C15.9087812,2.03080331 15.3553665,2.60382463 14.7026535,3.2919562 L13.516765,4.5410921 L13.0424096,6.39107817 L11.7180093,6.4144797 C9.25515603,6.46571009 7.80046613,6.66367441 7.53166474,6.98370619 C7.48043435,7.04315873 7.48802404,7.06276542 7.57910028,7.14182465 C8.22359115,7.69523929 13.3105785,7.8571526 15.6627488,7.40240389 C16.4969819,7.24049058 16.7101255,7.03873141 16.2560093,6.84519441 C15.9119435,6.6952981 14.6507906,6.48911162 14.0859915,6.48911162 C13.9316678,6.48911162 13.8962493,6.47709462 13.8962493,6.41827455 C13.8962493,6.38285601 13.9828982,6.01918353 14.0859915,5.6156652 L14.2719388,4.88073057 L15.378768,3.71065391 C15.9878404,3.06616303 16.4893922,2.50895355 16.4976143,2.47732986 C16.5374602,2.2996047 16.0668996,1.92012038 15.9283878,2.01499146 L15.9283878,2.01499146 Z M7.57151059,7.4941126 C7.57151059,7.61301769 8.04966084,12.1111719 8.07369484,12.1820089 C8.08128453,12.2136326 8.12113039,12.1541801 8.16034377,12.0397023 C8.51199924,11.055573 9.21151534,10.2213399 9.80477583,10.0828282 C10.0931839,10.0157859 10.3107549,10.086623 10.5441378,10.3200059 C10.8009222,10.5767902 10.8483577,10.8538138 10.6510259,10.9600694 C10.5523599,11.0112998 10.4574889,10.9404627 10.3309941,10.7108747 C10.0583979,10.2245023 9.55241875,10.4812867 9.0065938,11.3907841 C8.42977763,12.3470846 8.27924885,13.4071108 8.71818572,13.4071108 C8.88009903,13.4071108 9.27160036,13.0984636 9.54419659,12.7588251 C9.73014391,12.5216474 9.80098099,12.3913578 9.90407423,12.0865054 C9.97111646,11.8809514 10.0501757,11.6912092 10.0817994,11.6678077 C10.1134231,11.6444061 10.1842602,11.6279618 10.2475075,11.636184 C10.3499683,11.648201 10.3581905,11.6640128 10.3702075,11.8341483 C10.3777972,11.9644379 10.3468059,12.1225564 10.2595245,12.3679562 C10.1450468,12.6917829 10.0147572,13.1073182 9.76935729,13.9213121 C9.71433206,14.1072594 9.64286252,14.2970016 9.60744398,14.3444371 C9.52079506,14.467137 9.39809513,14.4589149 9.34243743,14.3324201 C9.30259158,14.249566 9.31460858,14.1622846 9.42529151,13.7910225 C9.49676105,13.5462551 9.56759813,13.3128722 9.57961513,13.2692315 C9.59163213,13.2180011 9.5005559,13.2850434 9.33042043,13.4431618 C8.93512426,13.8106291 8.54741777,13.9649528 8.31846223,13.8422528 C8.25142,13.8068343 8.24319784,13.814424 8.24319784,13.9092951 C8.24319784,14.2097202 8.52781108,16.9059563 8.56322962,16.9489645 C8.68213471,17.0912711 9.52395743,17.3322437 10.3777972,17.4669606 C11.0298777,17.5694214 12.8880859,17.5694214 13.5401665,17.4669606 C14.1011708,17.3758844 14.714038,17.2335777 15.0106683,17.1228948 C15.429366,16.9685712 15.3781356,17.1387067 15.6153133,15.0869614 C15.729791,14.0870202 15.8208673,13.2610094 15.8132776,13.256582 C15.8056879,13.2489923 15.6785607,13.343231 15.5324592,13.4659309 C15.2162223,13.7347323 15.0068734,13.8378255 14.7734906,13.8416204 C14.5641417,13.8416204 14.4572536,13.79039 14.4098181,13.6601004 C14.3541604,13.5215886 14.4294248,13.3596753 14.7298499,12.9877806 C15.0656935,12.5728778 15.1213512,12.4938185 15.1213512,12.410332 C15.1213512,12.2326068 14.714038,12.4179217 14.4812876,12.7031674 C14.4060232,12.7980385 14.2953403,12.9523621 14.2365202,13.0472332 C14.1024358,13.256582 13.7545751,14.0509692 13.5806448,14.5455638 C13.4459279,14.9288429 13.3200656,15.1065681 13.1891435,15.1065681 C13.1138791,15.1065681 12.9873843,15.011697 12.9873843,14.9560393 C12.9873843,14.8529461 13.1138791,14.5329143 13.347262,14.0231404 C13.4977908,13.6993137 13.6198582,13.426085 13.6198582,13.4184953 C13.6198582,13.4109057 13.5445938,13.462136 13.4497227,13.5374004 C13.224562,13.7233478 12.9753673,13.8416204 12.8210437,13.8416204 C12.6705149,13.8416204 12.5123965,13.7467493 12.5123965,13.6601004 C12.5123965,13.5886308 12.5199862,13.584836 12.2714239,13.7233478 C11.8957344,13.9289018 11.6825907,13.8536374 11.6825907,13.5095716 L11.6825907,13.3514531 L11.5206774,13.5215886 C11.2240472,13.8258085 10.8211613,13.9326966 10.5997955,13.7587663 C10.4574889,13.6480834 10.4612837,13.3868717 10.6118125,12.9365503 C10.8844087,12.1301461 11.0937576,11.8139091 11.2797049,11.9328142 C11.3941827,12.0042838 11.374576,12.1187615 11.193056,12.4938185 C10.8806139,13.1383094 10.8610072,13.4425294 11.1380307,13.3634701 C11.4030373,13.2882057 11.7192742,12.8733029 11.9406401,12.3198882 C12.0000926,12.1655646 12.0747245,12.011241 12.1107756,11.9720276 C12.1974245,11.8733617 12.3283466,11.9005581 12.3719873,12.0270528 C12.3998161,12.1099069 12.3719873,12.2205898 12.2176636,12.6000742 C12.0911689,12.9087214 12.0241266,13.1300873 12.0241266,13.2483599 C12.0203318,13.4184953 12.0241266,13.426085 12.1348096,13.4184953 C12.2771162,13.4064783 12.5060717,13.256582 12.5376954,13.1496939 C12.6603954,12.7506029 13.5730551,10.5211325 13.6445247,10.4420733 C13.7235839,10.3630141 13.7552076,10.3509971 13.8462839,10.3864156 C13.9133261,10.4098171 13.9607616,10.4578852 13.9689838,10.5091155 C13.9765735,10.5565511 13.9019416,10.7779169 13.8032756,11.0030776 C13.4155692,11.9005581 12.9102225,13.1971295 12.9102225,13.2957954 C12.9102225,13.3590428 12.9298292,13.4064783 12.9500684,13.4064783 C13.0449395,13.4064783 13.3061512,13.2407702 13.5901319,12.9991652 C13.8431215,12.7777993 13.902574,12.7063298 13.9575993,12.5286046 C14.108128,12.0700611 14.2181785,11.9397714 14.3807243,12.0264204 C14.4439717,12.0618389 14.4559887,12.0978899 14.4401768,12.2041455 C14.4281598,12.2794099 14.4281598,12.3388624 14.4401768,12.3388624 C14.4521938,12.3388624 14.5426376,12.2673929 14.6381411,12.1769491 C14.9385662,11.9043529 15.1953506,11.8366782 15.4325283,11.9834121 C15.5432113,12.0504544 15.5590231,12.0820781 15.5590231,12.2326068 C15.5590231,12.4381608 15.4009046,12.7189792 15.0688559,13.1098481 C14.9461559,13.2521547 14.84749,13.3868717 14.84749,13.4102732 C14.84749,13.4298799 14.8873359,13.4456917 14.9385662,13.4456917 C15.0252152,13.4456917 15.6899452,12.9359178 15.8360467,12.7575601 C15.8796874,12.7025349 15.9707636,11.9745575 16.1801124,10.0499395 C16.3344361,8.60347177 16.4609308,7.41315594 16.4527087,7.4093611 C16.4489138,7.40177141 16.3458206,7.43276263 16.2231207,7.47640333 C15.9144734,7.58329142 15.246581,7.69776919 14.4439717,7.78062326 C13.5743201,7.86727218 10.6295218,7.87928919 9.76745987,7.80022995 C8.96485053,7.72496556 8.19007004,7.60226563 7.8618161,7.49601002 L7.57340801,7.40493378 L7.57340801,7.4915827 L7.57151059,7.4941126 Z M8.7573991,17.3012524 C8.7573991,17.3088421 8.88389387,17.5308405 9.03442265,17.7914197 L9.31524105,18.2695699 L9.42971882,19.8583443 L9.54862391,21.451546 L9.667529,21.5540067 C9.96415924,21.8069963 10.6756923,21.9493029 11.7825216,21.9733369 C13.0398797,22.0011658 14.0195817,21.8430473 14.340246,21.5540067 L14.4667407,21.4433238 L14.557817,19.8387376 L14.6488932,18.2379462 L14.9056776,17.7869924 C15.0479842,17.542225 15.162462,17.3284488 15.162462,17.312637 C15.162462,17.30062 15.0435569,17.3284488 14.8936606,17.3796792 C14.3598526,17.5611992 13.3200656,17.723745 12.3953888,17.7749754 C11.3676188,17.8306331 9.77441708,17.6364636 8.9680129,17.3562777 C8.85353513,17.3164318 8.75866405,17.2930303 8.75866405,17.30062 L8.7573991,17.3012524 Z" id="gulp" fill="#000"/>
    </g>
</svg>

<svg xmlns="http://www.w3.org/2000/svg" viewBox="0 0 24 24">
    <path fill-rule="evenodd" d="M15.928 2.015c-.02.016-.573.589-1.225 1.277l-1.186 1.25-.475 1.85-1.324.022c-2.463.052-3.918.25-4.186.57-.052.06-.044.079.047.158.645.553 5.732.715 8.084.26.834-.162 1.047-.363.593-.557-.344-.15-1.605-.356-2.17-.356-.154 0-.19-.012-.19-.07 0-.036.087-.4.19-.803l.186-.735 1.107-1.17c.609-.645 1.11-1.202 1.119-1.234.04-.177-.431-.557-.57-.462zm-8.356 5.48c0 .118.478 4.616.502 4.687.007.032.047-.028.086-.142.352-.984 1.052-1.819 1.645-1.957.288-.067.506.004.74.237.256.257.303.534.106.64-.099.051-.194-.02-.32-.25-.273-.485-.779-.229-1.324.68-.577.957-.728 2.017-.289 2.017.162 0 .554-.309.826-.648.186-.237.257-.368.36-.672.067-.206.146-.396.178-.42a.26.26 0 0 1 .166-.03c.102.011.11.027.122.197.008.13-.023.289-.11.534a36.1 36.1 0 0 0-.49 1.553c-.056.186-.127.376-.163.423-.086.123-.209.115-.265-.012-.04-.082-.027-.17.083-.541.072-.245.143-.478.155-.522.012-.051-.08.016-.25.174-.395.368-.783.522-1.012.4-.067-.036-.075-.029-.075.066 0 .3.285 2.997.32 3.04.12.142.961.383 1.815.518.652.102 2.51.102 3.162 0 .561-.091 1.174-.233 1.47-.344.42-.154.368.016.605-2.036.115-1 .206-1.826.198-1.83-.007-.008-.134.086-.28.209-.317.269-.526.372-.76.376-.209 0-.316-.052-.363-.182-.056-.138.02-.3.32-.672.336-.415.391-.494.391-.578 0-.177-.407.008-.64.293-.075.095-.186.25-.244.344-.135.21-.482 1.004-.656 1.499-.135.383-.26.56-.392.56-.075 0-.202-.094-.202-.15 0-.103.127-.423.36-.933.15-.324.273-.597.273-.605a.846.846 0 0 0-.17.12c-.225.185-.475.304-.629.304-.15 0-.309-.095-.309-.182 0-.071.008-.075-.24.063-.376.206-.59.13-.59-.213v-.159l-.161.17c-.297.305-.7.412-.921.238-.143-.11-.139-.372.012-.822.272-.807.482-1.123.668-1.004.114.071.095.186-.087.56-.312.645-.332.95-.055.87.265-.075.581-.49.803-1.043.06-.154.134-.309.17-.348.086-.099.217-.071.261.055.028.083 0 .194-.154.573-.127.309-.194.53-.194.648-.004.17 0 .178.11.17.143-.012.372-.161.404-.268.122-.4 1.035-2.629 1.107-2.708.079-.079.11-.091.201-.056.067.024.115.072.123.123.008.048-.067.269-.166.494-.387.898-.893 2.194-.893 2.293 0 .063.02.11.04.11.095 0 .356-.165.64-.407.253-.221.313-.293.368-.47.15-.459.26-.59.423-.503.063.036.075.072.06.178-.013.075-.013.135 0 .135.011 0 .102-.072.197-.162.3-.273.557-.34.795-.194.11.067.126.1.126.25 0 .205-.158.486-.49.877-.123.142-.222.277-.222.3 0 .02.04.036.092.036.086 0 .75-.51.897-.688.044-.055.135-.783.344-2.708.154-1.447.28-2.637.273-2.64a1.012 1.012 0 0 0-.23.066c-.309.107-.976.222-1.779.305-.87.086-3.814.098-4.677.02-.802-.076-1.577-.199-1.905-.305l-.289-.091v.087l-.001.002zM8.757 17.3c0 .008.127.23.277.49l.281.479.115 1.588.119 1.594.119.102c.296.253 1.008.395 2.115.42 1.257.027 2.237-.131 2.557-.42l.127-.11.09-1.605.092-1.601.257-.451c.142-.245.256-.459.256-.474 0-.012-.118.015-.268.067-.534.181-1.574.344-2.499.395-1.027.056-2.62-.139-3.427-.419a.784.784 0 0 0-.21-.055z"/>
</svg>
